svgs/duotone/file-magnifying-glass.svg

<svg xmlns="http://www.w3.org/2000/svg" viewBox="0 0 384 512"><!-- Font Awesome Pro 6.0.0-alpha2 by @fontawesome - https://fontawesome.com License - https://fontawesome.com/license (Commercial License) --><defs><style>.fa-secondary{opacity:.4}</style></defs><path d="M176 248C145.121 248 120 273.121 120 304S145.121 360 176 360S232 334.879 232 304S206.879 248 176 248ZM256 128V0H48C21.49 0 0 21.492 0 48V464C0 490.508 21.49 512 48 512H336C362.51 512 384 490.508 384 464V128H256ZM315.314 432.004L304.004 443.313C297.756 449.563 287.625 449.563 281.377 443.313L229.254 392.895C213.631 402.277 195.551 408 176 408C118.562 408 72 361.438 72 304S118.562 200 176 200S280 246.562 280 304C280 324.445 273.889 343.375 263.701 359.453L315.314 409.375C321.562 415.625 321.562 425.758 315.314 432.004Z" class="fa-secondary"/><path d="M256 0V128H384L256 0ZM263.701 359.453C273.889 343.375 280 324.445 280 304C280 246.562 233.438 200 176 200S72 246.562 72 304S118.562 408 176 408C195.551 408 213.631 402.277 229.254 392.895L281.377 443.312C287.625 449.562 297.756 449.562 304.004 443.312L315.314 432.004C321.563 425.758 321.563 415.625 315.314 409.375L263.701 359.453ZM176 360C145.121 360 120 334.879 120 304S145.121 248 176 248S232 273.121 232 304S206.879 360 176 360Z" class="fa-primary"/></svg>

<svg xmlns="http://www.w3.org/2000/svg" viewBox="0 0 384 512"><!--! Font Awesome Pro 6.3.0 by @fontawesome - https://fontawesome.com License - https://fontawesome.com/license (Commercial License) Copyright 2023 Fonticons, Inc. --><defs><style>.fa-secondary{opacity:.4}</style></defs><path class="fa-primary" d="M256 0v128h128L256 0zM264.3 358.4C274.1 342.5 280 324 280 304c0-57.44-46.56-104-104-104S72 246.6 72 304s46.56 104 104 104c19.1 0 38.5-5.922 54.36-15.71l48.67 48.67C283.7 445.7 289.8 448 296 448s12.28-2.344 16.97-7.031c9.375-9.375 9.375-24.56 0-33.94L264.3 358.4zM176 360c-30.88 0-56-25.12-56-56c0-30.88 25.12-56 56-56c30.88 0 56 25.12 56 56C232 334.9 206.9 360 176 360z"/><path class="fa-secondary" d="M256 128V0H48C21.49 0 0 21.49 0 48v416C0 490.5 21.49 512 48 512h288c26.51 0 48-21.49 48-48V128H256zM312.1 440.1C308.3 445.7 302.2 448 296 448s-12.28-2.344-16.97-7.031l-48.67-48.67C214.5 402.1 195.1 408 176 408c-57.44 0-104-46.56-104-104S118.6 200 176 200s104 46.56 104 104c0 20-5.922 38.5-15.71 54.36l48.67 48.67C322.3 416.4 322.3 431.6 312.1 440.1zM176 248c-30.88 0-56 25.12-56 56c0 30.88 25.12 56 56 56c30.88 0 56-25.12 56-56C232 273.1 206.9 248 176 248z"/></svg>
